X:1
T:Title
%%score { 1 | 2 }
L:1/8
Q:1/4=94
M:3/4
K:G
V:1 treble nm="Grand Piano"
V:2 bass 
V:1
 [DGB]2 [DGB]2 [DAc]2 | [DBd]3 [DAc] [DGB]2 | [DGB]2 [B,DG]2 [CDA]2 | [B,DG]4 z2 | %4
w: Z.~W.~Fagan * *||||
 [DGB]2 [DGB]2 [DAc]2 | [DBd]3 [DAc] [DGB]2 | [DGB]2 [B,DG]2 [CDA]2 | [B,DG]4 z2 | %8
w: ||||
 [FA]2 [FA]2 [GB]2 | [Ac]3 [GB] [FA]2 | B2 B2 c2 | d3 c B2 | [GB]2 G2 A2 | G6 |] %14
w: ||||||
V:2
 G,2 G,2 G,2 | G,3 G, G,2 | D,2 D,2 D,2 | G,4 z2 | G,2 G,2 G,2 | G,3 G, G,2 | D,2 D,2 D,2 | %7
 G,4 z2 | [D,D]2 [D,D]2 [D,D]2 | [D,D]3 [D,D] [D,D]2 | [G,DG]2 [G,DG]2 [G,A,G]2 | %11
 [G,B,G]3 [G,EG] [G,DG]2 | [D,D]2 [D,B,D]2 [D,CD]2 | [G,B,D]6 |] %14

